public/images/facilities/cable_car.svg

<svg xmlns="http://www.w3.org/2000/svg" width="14" data-name="图层 1" viewBox="0 0 2.714 2.714">
  <rect width="2.714" height="2.714" rx=".362" style="fill:#2d2a26"/>
  <path d="M1.43 1.037V.925a3 3 0 0 1 .366.084.3.3 0 0 1 .076.1Zm.036.639s-.017-.459-.025-.52a3.5 3.5 0 0 0 .495.075 2 2 0 0 1 .094.409zM1.084.964a1.9 1.9 0 0 0-.121.712h.321V1.8H.965v.067h.324a1.8 1.8 0 0 0 .062.544s0-.715-.011-.946-.034-.543-.034-.543ZM.867 2.23a1.6 1.6 0 0 1-.079-.377H.535V1.8H.78v-.118H.541a1.46 1.46 0 0 1 .21-.65 1 1 0 0 1 .195-.04 2 2 0 0 0-.1.751 4 4 0 0 0 .023.487M1.06.237a.128.128 0 0 1 .229-.052L1.253.2l.031.093.026-.011a.13.13 0 0 1-.057.083V.351h-.124v.021A.13.13 0 0 1 1.081.33L1.1.323 1.087.23Zm.847-.247h.37l-.9.272a.19.19 0 0 1-.121.168v.275a1 1 0 0 1 .118-.022c.029 0 .462.1.524.113s.118.05.1.135-.06.083-.056.09a1.4 1.4 0 0 1 .2.782 1.2 1.2 0 0 1-.17.506 1.25 1.25 0 0 1-.568.209 1.9 1.9 0 0 1-.782-.152 1.8 1.8 0 0 1-.187-.456 1.1 1.1 0 0 1-.006-.287 1.7 1.7 0 0 1 .171-.58s-.051 0-.062-.079A.1.1 0 0 1 .606.84l.526-.124V.434a.2.2 0 0 1-.1-.088L0 .648V.524l1-.271a.185.185 0 0 1 .35-.087Z" style="fill:#fff;fill-rule:evenodd"/>
</svg>

<svg id="图层_1" data-name="图层 1" xmlns="http://www.w3.org/2000/svg" viewBox="0 0 2.714 2.714" width="14"><defs><style>.cls-1{fill:#2d2a26;}.cls-2{fill:#fff;fill-rule:evenodd;}</style></defs><rect class="cls-1" width="2.714" height="2.714" rx="0.362"/><path class="cls-2" d="M1.43,1.037l0-.112a2.985,2.985,0,0,1,.366.084.313.313,0,0,1,.076.1Zm.036.639s-.017-.459-.025-.52a3.539,3.539,0,0,0,.495.075,1.955,1.955,0,0,1,.094.409l-.564.036M1.084.964a1.869,1.869,0,0,0-.121.712h.321V1.8H.965v.067h.324a1.781,1.781,0,0,0,.062.544s0-.715-.011-.946S1.306.922,1.306.922ZM.867,2.23a1.63,1.63,0,0,1-.079-.377H.535V1.8H.78V1.682H.541a1.457,1.457,0,0,1,.21-.65A1.231,1.231,0,0,1,.946.992a2,2,0,0,0-.1.751,4.236,4.236,0,0,0,.023.487M1.06.237A.128.128,0,0,1,1.289.185L1.253.2l.031.093L1.31.282a.127.127,0,0,1-.057.083V.351H1.129V.372A.13.13,0,0,1,1.081.33L1.1.323,1.087.23ZM1.907-.01h.37l-.9.272A.185.185,0,0,1,1.256.43V.705A.909.909,0,0,1,1.374.683c.029,0,.462.1.524.113s.118.05.1.135-.06.083-.056.09a1.4,1.4,0,0,1,.2.782,1.232,1.232,0,0,1-.17.506,1.245,1.245,0,0,1-.568.209,1.938,1.938,0,0,1-.782-.152A1.754,1.754,0,0,1,.435,1.91a1.117,1.117,0,0,1-.006-.287A1.658,1.658,0,0,1,.6,1.043s-.051,0-.062-.079A.1.1,0,0,1,.606.84L1.132.716V.434a.187.187,0,0,1-.1-.088L0,.648V.524L1,.253A.185.185,0,0,1,1.35.166Z"/></svg>
